X:1
T: Sir Archibald Grant of Monymusk
C:
R:Strathspey
Q: 128
K:G
M:4/4
L:1/16
|:e2|d3G B3G d3G c3e|d3G B3G ((3A2B2A2) c3e|d3G B3G B3c d3g|e3c A3d BG3 G2e2|
d3G B3G d3G c3e|d3G B3G ((3A2B2A2) c3e|d3G B3G B3c d3g|e3c A3d BG3 G2f2|
g4 d3g B3g d3f|g3d c3g B3g A3f|g3d e3g d3g B3g|e3c A3d BG3 G2f2|
g4 d3g B3g d3f|g3d c3g B3g A3f|g3d e3g d3g B3g|e3c A3d BG3 G2:|
